X: 40
T:The Bonney Grey Ey'd Morn
T:John Malchair's Third Collection of Tunes
%%VWML:Malchair-3619-p41
F:https://www.vwml.org/record/Malchair/3619/p41
F:www.vwml.org/topics/historic-dance-and-tune-books/Malchair
Z:Eric Conran Jan 2020
M:C|
L:1/8
K:Bb
F|(BA) (Bc)d2 (cB)|(de)f2 f3g|(fg) (fd) (ed) (cB)|(AB) (cd) c3d|
(ed) (cB) A3A|(BA) (GF)^E3C|(FA) (GB) (Ac) (dc)|(BA) (GF)F3|| 
c|(cA) (cA) F3f|(fd) (fd) B3d|(eG) (cA) ^F3d|(cB) (AB) G3D|
(GA) (BG) e3d|(dG) (cB) A3F|(Bd) (ce) (df) (gf)|(ed) (cB) B3||
W:
T:Ianthe
T:John Malchair's Third Collection of Tunes
%%VWML:Malchair-3619-p41
F:https://www.vwml.org/record/Malchair/3619/p41
F:www.vwml.org/topics/historic-dance-and-tune-books/Malchair
M:C
L:1/8
K:Bb
A|B2AG d2cd|edcB A2(AB)|c2(BA) (Bd) (gd)|(cB) (AG)G3||
A|B2Bc d2de|f2(ed) c2D2|(BA) (Bc) d2(gf)|(ed)(cB) B2d2|
=B2=BB c2d2|(ed) (cB) A2g^f|g2(dc) B2d2|(ed)(cB) A2d2|(cB) (AG) G3||
W:The B naturals in Bar 9 could be sharps, but that would not make musical sense



I:abc-charset utf-8
